site/web/app/themes/cedreo-designer/assets/icons/envelop.svg

<?xml version="1.0" encoding="utf-8"?>
<!-- Generated by IcoMoon.io -->
<!DOCTYPE svg PUBLIC "-//W3C//DTD SVG 1.1//EN" "http://www.w3.org/Graphics/SVG/1.1/DTD/svg11.dtd">
<svg version="1.1" xmlns="http://www.w3.org/2000/svg" xmlns:xlink="http://www.w3.org/1999/xlink" width="32" height="32" viewBox="0 0 32 32">
<path fill="#000" d="M30.7 5.8h-30.7v20.5h32v-20.5h-1.3zM29.4 6.9l-12.4 12.4c-0.6 0.6-1.5 0.6-2.1 0l-12.3-12.4h26.8zM1.3 7.5l8.3 8.3-8.3 8.3v-16.6zM2.3 24.9l8.2-8.2 3.5 3.5c0.5 0.5 1.2 0.8 2 0.8s1.4-0.3 2-0.8l3.5-3.5 8.2 8.2h-27.4zM30.7 24.1l-8.3-8.3 8.3-8.3v16.6z"></path>
</svg>

<svg xmlns="http://www.w3.org/2000/svg" width="32" height="32" viewBox="0 0 32 32"><path d="M30.7 5.8H0v20.5h32V5.8h-1.3zm-1.3 1.1L17 19.3c-.6.6-1.5.6-2.1 0L2.6 6.9h26.8zm-28.1.6l8.3 8.3-8.3 8.3V7.5zm1 17.4l8.2-8.2 3.5 3.5c.5.5 1.2.8 2 .8s1.4-.3 2-.8l3.5-3.5 8.2 8.2H2.3zm28.4-.8l-8.3-8.3 8.3-8.3v16.6z"/></svg>
